lib/brands/icons/reactivex.svg

<svg xmlns="http://www.w3.org/2000/svg" fill="none" aria-hidden="true" viewBox="0 0 48 48"><g id="reactivex-Icon"><g id="Group"><path id="Vector" fill="#FF0090" d="M8.34695 28.7584C6.5017 18.9478 11.3784 9.48613 22.5712 8.22745C21.0277 6.57818 18.9191 6.56579 17.949 6.76641C16.236 7.31233 16.2898 8.42081 14.3467 9.85262C12.4151 10.9559 11.4449 10.111 10.0378 11.2547C8.63365 12.3899 9.61342 14.996 9.02453 15.5026C8.43996 16.5159 6.62662 17.4185 6.29653 18.6983C6.02373 20.3351 7.03699 21.5042 6.99802 22.9072C7.11493 24.0763 5.8341 24.7374 6.01812 25.685C6.56933 27.233 7.63177 28.1647 8.13263 28.5942C8.24748 28.6751 8.36879 28.8745 8.34695 28.7584Z"/><path id="Vector_2" fill="url(#paint0_radial_94_18984)" d="M28.2635 15.1779C27.8546 15.1779 27.5231 14.8464 27.5231 14.4375C27.5231 14.0286 27.8546 13.697 28.2635 13.697C28.6724 13.697 29.004 14.0286 29.004 14.4375C29.004 14.8464 28.6724 15.1779 28.2635 15.1779ZM8.77918 29.8285C7.00591 21.3021 12.4932 14.1777 23.1193 17.6851C29.3545 21.3327 37.1981 21.0952 37.5517 18.7373C38.4248 15.9107 33.5767 10.0857 26.328 8.5658C11.9476 5.75987 4.19497 21.3021 8.77918 29.8285Z"/><path id="Vector_3" fill="url(#paint1_radial_94_18984)" d="M32.3683 30.7794C34.5036 31.0107 36.5305 30.4983 38.4089 28.9672C35.5711 32.1325 32.0229 33.7239 27.9516 34.157C29.8955 35.8096 31.7701 36.554 33.5635 36.2354C28.5803 37.6104 24.4053 36.0969 19.3266 31.0393C19.0607 32.4008 20.4987 34.522 21.9808 35.8761C13.3811 32.1478 12.6272 20.5337 23.1137 17.6769C12.2432 12.4541 6.09652 22.6019 9.11646 30.919C12.0713 37.3249 19.9453 42.2563 28.5751 41.1718C32.767 40.6584 39.0266 37.7683 41.5838 30.919C39.7815 32.5363 36.5599 33.9449 35.1223 34.053C39.988 31.6213 42.6145 27.4894 41.8773 21.842C40.8694 24.2415 39.5396 26.0843 37.8763 27.3499C41.4096 21.842 40.8033 18.9952 38.188 15.8664C40.0587 21.0106 37.6389 26.72 32.3683 30.7794Z"/><path id="Vector_4" fill="url(#paint2_linear_94_18984)" d="M29.8711 36.7058C29.5019 36.6368 30.708 37.1944 28.3762 36.5771C26.0443 35.9598 23.6701 35.3649 19.3264 31.0392C19.0605 32.4008 20.4984 34.522 21.9806 35.8761C25.9817 38.6665 23.2606 37.3615 29.3569 39.469C29.8461 38.4952 29.8711 37.6299 29.8711 36.7058Z"/><path id="Vector_5" fill="url(#paint3_linear_94_18984)" d="M22.1199 14.7942C22.1199 14.7942 22.6499 14.0119 22.8562 13.6591C23.1091 13.2267 23.4973 12.4387 23.4973 12.4387C23.4973 12.4387 19.4175 11.1076 18.4163 10.9452C15.3039 11.7531 15.2926 13.0571 17.0327 15.0529C17.2263 15.2751 22.1199 14.7942 22.1199 14.7942Z"/></g></g><defs><radialGradient id="paint0_radial_94_18984" cx="0" cy="0" r="1" gradientTransform="matrix(27.1332 0 0 19.4096 31.242 16.405)" gradientUnits="userSpaceOnUse"><stop stop-color="#F80090"/><stop offset="1" stop-color="#4D008E"/></radialGradient><radialGradient id="paint1_radial_94_18984" cx="0" cy="0" r="1" gradientTransform="matrix(27.5024 0 0 20.8044 31.48 16.986)" gradientUnits="userSpaceOnUse"><stop stop-color="#57008E"/><stop offset="0.291746" stop-color="#5C008E"/><stop offset="1" stop-color="#F80090"/></radialGradient><linearGradient id="paint2_linear_94_18984" x1="21.2235" x2="26.0849" y1="31.0392" y2="39.2151" gradientUnits="userSpaceOnUse"><stop stop-color="#F70090"/><stop offset="0.669713" stop-color="#E50090"/><stop offset="0.827148" stop-color="#D6008F" stop-opacity="0.2"/><stop offset="1" stop-color="#C10090" stop-opacity="0"/></linearGradient><linearGradient id="paint3_linear_94_18984" x1="20.8194" x2="20.1139" y1="13.9266" y2="12.5754" gradientUnits="userSpaceOnUse"><stop stop-color="#B2008F" stop-opacity="0.15134"/><stop offset="0.400351" stop-color="#F70090" stop-opacity="0.4"/><stop offset="0.648996" stop-color="#F60090" stop-opacity="0.891668"/><stop offset="1" stop-color="#FF0090"/></linearGradient></defs></svg>

<svg xmlns="http://www.w3.org/2000/svg" fill="none" aria-hidden="true" viewBox="0 0 48 48"><path fill="#FF0090" d="M8.347 28.758c-1.845-9.81 3.031-19.272 14.224-20.53-1.543-1.65-3.652-1.662-4.622-1.462-1.713.546-1.66 1.655-3.602 3.087-1.932 1.103-2.902.258-4.31 1.402-1.403 1.135-.424 3.741-1.012 4.248-.585 1.013-2.398 1.916-2.728 3.195-.273 1.637.74 2.806.701 4.21.117 1.168-1.164 1.83-.98 2.777.551 1.548 1.614 2.48 2.115 2.91.114.08.236.28.214.163Z"/><path fill="url(#a)" d="M28.264 15.178a.74.74 0 1 1 0-1.48.74.74 0 0 1 0 1.48ZM8.779 29.828c-1.773-8.526 3.714-15.65 14.34-12.143 6.236 3.648 14.08 3.41 14.433 1.052.873-2.826-3.975-8.651-11.224-10.171C11.948 5.76 4.195 21.302 8.779 29.828Z"/><path fill="url(#b)" d="M32.368 30.78c2.136.23 4.163-.282 6.04-1.813-2.837 3.166-6.385 4.757-10.456 5.19 1.943 1.653 3.818 2.397 5.611 2.078-4.983 1.375-9.158-.138-14.236-5.196-.266 1.362 1.172 3.483 2.654 4.837-8.6-3.728-9.354-15.342 1.133-18.2-10.87-5.222-17.017 4.926-13.998 13.243 2.955 6.406 10.83 11.337 19.46 10.253 4.191-.514 10.45-3.404 13.008-10.253-1.803 1.617-5.024 3.026-6.462 3.134 4.866-2.432 7.492-6.564 6.755-12.211-1.008 2.4-2.337 4.242-4 5.508 3.533-5.508 2.926-8.355.311-11.484 1.87 5.145-.55 10.854-5.82 14.913Z"/><path fill="url(#c)" d="M29.871 36.706c-.37-.07.837.488-1.495-.129s-4.706-1.212-9.05-5.538c-.265 1.362 1.172 3.483 2.655 4.837 4 2.79 1.28 1.486 7.376 3.593.49-.974.514-1.84.514-2.763Z"/><path fill="url(#d)" d="M22.12 14.794s.53-.782.736-1.135c.253-.432.641-1.22.641-1.22s-4.08-1.331-5.08-1.494c-3.113.808-3.124 2.112-1.384 4.108.193.222 5.087-.259 5.087-.259Z"/><defs><radialGradient id="a" cx="0" cy="0" r="1" gradientTransform="matrix(27.1332 0 0 19.4096 31.242 16.405)" gradientUnits="userSpaceOnUse"><stop stop-color="#F80090"/><stop offset="1" stop-color="#4D008E"/></radialGradient><radialGradient id="b" cx="0" cy="0" r="1" gradientTransform="matrix(27.5024 0 0 20.8044 31.48 16.986)" gradientUnits="userSpaceOnUse"><stop stop-color="#57008E"/><stop offset=".292" stop-color="#5C008E"/><stop offset="1" stop-color="#F80090"/></radialGradient><linearGradient id="c" x1="21.224" x2="26.085" y1="31.039" y2="39.215" gradientUnits="userSpaceOnUse"><stop stop-color="#F70090"/><stop offset=".67" stop-color="#E50090"/><stop offset=".827" stop-color="#D6008F" stop-opacity=".2"/><stop offset="1" stop-color="#C10090" stop-opacity="0"/></linearGradient><linearGradient id="d" x1="20.819" x2="20.114" y1="13.927" y2="12.575" gradientUnits="userSpaceOnUse"><stop stop-color="#B2008F" stop-opacity=".151"/><stop offset=".4" stop-color="#F70090" stop-opacity=".4"/><stop offset=".649" stop-color="#F60090" stop-opacity=".892"/><stop offset="1" stop-color="#FF0090"/></linearGradient></defs></svg>
